X: 33700
T: Rannafast, The
R: jig
M: 6/8
K: Amixolydian
AcA GFG|ABc def|gfe def|ecA G2G|
ABA GFG|ABc def|e2c dB^G|A3 A2E|
AcA GFG|ABc def|e2c dcd|ecA GAB|
A2F GFG|ABc def|e2c db^G|A3 Ace|
|:a2A A^GA|cBA Aaf|g2G GFG|BA^G Ace|
a2A A^GA|cBA eaf|gag fed|1 ecA Ace:|2 ecA AFE||
K:Amaj
|:AGA cec|dfd cec|BdB AcA|GBG EFG|
AGA cec|dfd cec|BGE dBG|A3 A2E:|

